X:247
T:Royal Glasgow Volunteer’s Farewell,The. RH.247
R:jig
S:Rev.R.Harrison’s MS,c1815,Cumbria
N:Originally transcribed with R:Air. I don’t know why. PJH.
O:England
A:Temple Sowerby,Cumbria
Z:vmp.Simon Wilson. Review PJH, 2008.
M:6/8
L:1/8
Q:3/8=120
K:G
D|G2G G2B|ABG AFD|G2G GBd|d>cB B2A|!
G2G G2B|A>BG AFD|G>Bd e>fg|B>cA G2:|!
|:B/c/|d2B G2A|d>ge dBG|e2c A2c|d>BG AFD|!
G2B B2c|d2e f2g|fed e>d^c|”sic”d2d d3/4c/4B/A/:|

